X:443
T:Louth Quickstep
M:4/4
L:1/8
K:G
B2 BG B2 d2 | c2 A2 A4 | B2 G2 F2 G2 | AGFE D4 |
B2 BG B2 d2 | c2 A2 A2 c2 | cBAG FGAF | G2 B2 G4 :|
g4 f2 e2 | e2 d2 d4 | e4 d2 c2 | c2 B2 B4 |
g4 f2 e2 | e2 d2 d2 c2 | cBAG FGAF | G2 B2 G4 :||
